X: 1
T: Poldwilly Bridge
M: 4/4
L: 1/8
R: reel
K: Dmaj
d2 AF DdAF |d2 AF EecA |d2 AF DdAF |EecA d2 dA |
d2 AF DdAF |d2 AF EecA |d2 AF DdAF |EecA d2 dA |
d2 fd adfd |adfd bdgb |d2 fd afdA |GBAF E2 Ee |
d2 fd adfd |adfd bdgb |afge fdef |gfed cABc |]
